X: 38161
T: Sporting Pitchfork, The
R: jig
M: 6/8
K: Dmixolydian
~F3 EAG|FGA DAF|~G3 AGA|cAG FGA|
~B3 BAG|~A3 ABc|dcA AGF|AGF ~G3|
FAF EAG|FGA dAF|~G3 AGA|cAG FGA|
~B3 BAG|AGB ABc|dcA AGF|AGF ~G3||
d2e ~f2d|~g2f daf|g2a bag|fdc dcA|
B/c/dB BAG|~A3 ABc|dcA AGF|AGF ~G3|
d2e ~f2d|~g2f daf|g2a bag|fdc dcA|
~B3 BAG|AGB ABc|dcA AGF|AGF ~G3||

